X:820
T:Playd in the Streets at Oxford Ash Wednesday Feb.25.1789.
C:John Malchair's Third Collection of Tunes
F:https://www.vwml.org/record/Malchair/3619/p82
F:www.vwml.org/topics/historic-dance-and-tune-books/Malchair
Z:Eric Conrad Apr 2020
% The final note of the last measure may have been erased, or maybe not.
W:This was playd by a Flute a bec and Tambour.
W:(NB: Flute a bec = fl\^ute \`a bec)
M:2/4
L:1/16
K:C
% %%MIDI program 73 % flute (does this MIDI channel resemble the fl\^ute \`a bec?)
%%MIDI program 72 % piccolo (does this MIDI channel resemble the fl\^ute \`a bec?)
P:A
ge | c2c2 c2Bc | d2d2 d2fd | {c/}B2AG A2B2 | c2e2 e2g2 | 
c2c2 c2Bc | d2d2 d2fd | {c/}B2AG A2B2 | c2c2 c2 ||
P:B
cd | e2e2 e2de | f2f2 fgfe | d2d2 d2cd | e2e2 efge |
c2c2 c2Bc | d2d2 d2fd | cBAG A2B2 | c2c2 c2 |]

